img/instagram-icon.svg

<svg fill="#ffffff" xmlns="http://www.w3.org/2000/svg"  viewBox="0 0 48 48" width="48px" height="48px"><path d="M 16.5 5 C 10.16639 5 5 10.16639 5 16.5 L 5 31.5 C 5 37.832757 10.166209 43 16.5 43 L 31.5 43 C 37.832938 43 43 37.832938 43 31.5 L 43 16.5 C 43 10.166209 37.832757 5 31.5 5 L 16.5 5 z M 16.5 8 L 31.5 8 C 36.211243 8 40 11.787791 40 16.5 L 40 31.5 C 40 36.211062 36.211062 40 31.5 40 L 16.5 40 C 11.787791 40 8 36.211243 8 31.5 L 8 16.5 C 8 11.78761 11.78761 8 16.5 8 z M 34 12 C 32.895 12 32 12.895 32 14 C 32 15.105 32.895 16 34 16 C 35.105 16 36 15.105 36 14 C 36 12.895 35.105 12 34 12 z M 24 14 C 18.495178 14 14 18.495178 14 24 C 14 29.504822 18.495178 34 24 34 C 29.504822 34 34 29.504822 34 24 C 34 18.495178 29.504822 14 24 14 z M 24 17 C 27.883178 17 31 20.116822 31 24 C 31 27.883178 27.883178 31 24 31 C 20.116822 31 17 27.883178 17 24 C 17 20.116822 20.116822 17 24 17 z"/></svg>

<svg fill="#fff" xmlns="http://www.w3.org/2000/svg" width="48" height="48"><path d="M16.5 5C10.166 5 5 10.166 5 16.5v15C5 37.833 10.166 43 16.5 43h15C37.833 43 43 37.833 43 31.5v-15C43 10.166 37.833 5 31.5 5h-15zm0 3h15c4.711 0 8.5 3.788 8.5 8.5v15c0 4.711-3.789 8.5-8.5 8.5h-15A8.478 8.478 0 018 31.5v-15C8 11.788 11.788 8 16.5 8zM34 12a2 2 0 10-.001 3.999A2 2 0 0034 12zm-10 2c-5.505 0-10 4.495-10 10s4.495 10 10 10 10-4.495 10-10-4.495-10-10-10zm0 3c3.883 0 7 3.117 7 7s-3.117 7-7 7-7-3.117-7-7 3.117-7 7-7z"/></svg>
